X:794
T:Oyster Wives' Rant, The
B:Kerr's Merry Melodies Bk.2
Z:Nigel Gatherer
M:4/4
L:1/8
K:Ador
B | e2 ed eAAB  | dedB GABd | e2 ed efge | dBgB A/A/A A :|
B | edef  g2 fe | dedB dedB | edef  gage | dBgB A/A/A A :|
